X:314
T:Kirkwall Bay 
C:Joe Buchanan's Scottish Tome - Page 087.0
I:087 0
Z:Carl Allison
C:Jimmy Shand
R:March
L:1/8
M:6/8
K:D
(f<e) | "D"d2 A3 | "Bm"d>ef "F#m"a3 | "Bm"a>gf "D"f>ed | "Em"e>dB "G"B>AG |
| "D"d3 "Bm"A3 | d>ef "F#m"(a2 g) | "D"f>ga "A7"A>fe | "D"d3 d :|
A>d | "D"f3 (f2 a) | A>df "F#m"a3 | "Bm"a>gf "D"f>ed | "G"e>dB B>AG |
| "D"f3 (f2 a) | A>df "F#m"(a2 g) | "D"f>ga "A7"A>fe | "D"d3 d>Ad |
| "D"f3 (f2 a) | A>df "F#m"a3 | "Bm"a>gf "D"f>ed | "G"e>dB B>AG |
| "D"d3 A3 | "Bm"d>ef "F#m"(a2 g) | "D"f>ga "A7"A>fe | "D"d3 d |]
(f<e) |"D" d2 A "F#m"A>AA | "D"A>df "F#m"a3 | "Bm"f>ga "D"A>df |"Bm" a>gf "Em"e>fe |
|"D" d2 A "F#m"A>AA | "Bm"A>df "F#m"(a2 g) | "D"f<ga "A7"A<fe | "D"d3 d |
(f>g)|"D" a>AA (f2 A) | "Bm"d>ef "F#m"(a2 A) | "Bm"a>af "D"f>ed | "Em"e>dB "G"B>AG |
| "D"a>AA "F#m"(f2 A) | "Bm"d>ef "F#m"(a2 A) | "D"f>ga "A7"A>fe | "D"d3 d>fg |
| "D"a>AA (f2 A) | "Bm"d<ef "F#m"(a2 A) | "Bm"a>gf "D"f>ed | "Em"e>dB "G"B>AG |
| "D"d2 A "F#m"A>AA | "Bm"A3/2df "F#m"(a2 g) | "Bm"f>ga "A7"A>fe | "D"d3 d |]

